svg/Meteorology/sky_coverage/sky_overcast.svg

<svg xmlns="http://www.w3.org/2000/svg" viewBox="0 0 744.09 1052.36"><g stroke="#000"><g transform="matrix(1.09335 0 0 1.08313-45.42-9.08)"><path transform="matrix(2.40971 0 0 2.3139-592.08-546.62)" d="M401.78572 447.54074A29.821428 29.821428 0 1 1 342.14287 447.54074 29.821428 29.821428 0 1 1 401.78572 447.54074z" fill="none" stroke-linecap="square" stroke-width="3.3"/><g fill-rule="evenodd"><path d="m303.72 427.48v118.69c-3.365 21.308 59.31 9.411 66.57-58.24 5.23-48.766-64.31-81.59-66.57-60.45z" stroke-width="7.182"/><path d="m300 555.37l1.025-71.72" fill="none"/><g stroke-width="1.026"><path d="m301.49 556.85l.536-68.61-66.62-1.548c-6.086 46.19 26.953 60.64 66.09 70.16z"/><path d="m233.12 486.98l68.61.536 1.548-66.62c-46.19-6.086-60.64 26.953-70.16 66.09z"/></g></g></g><path transform="matrix(1.57865 0 0 1.50619-504.18-225.07)" d="M553.05851 496.02066A52.27539 52.27539 0 1 1 448.50772 496.02066 52.27539 52.27539 0 1 1 553.05851 496.02066z" fill="none" stroke-linecap="square" stroke-width="3"/></g></svg>

<?xml version="1.0" encoding="UTF-8" standalone="no"?>
<!-- Created with Inkscape (http://www.inkscape.org/) -->
<svg
   xmlns:dc="http://purl.org/dc/elements/1.1/"
   xmlns:cc="http://web.resource.org/cc/"
   xmlns:rdf="http://www.w3.org/1999/02/22-rdf-syntax-ns#"
   xmlns:svg="http://www.w3.org/2000/svg"
   xmlns="http://www.w3.org/2000/svg"
   xmlns:sodipodi="http://sodipodi.sourceforge.net/DTD/sodipodi-0.dtd"
   xmlns:inkscape="http://www.inkscape.org/namespaces/inkscape"
   width="744.09448819"
   height="1052.3622047"
   id="svg2"
   sodipodi:version="0.32"
   inkscape:version="0.44.1"
   sodipodi:docbase="C:\Documents and Settings\pc\Desktop\meteo\meteo svg\sky"
   sodipodi:docname="sky_overcast.svg">
  <defs
     id="defs4" />
  <sodipodi:namedview
     id="base"
     pagecolor="#ffffff"
     bordercolor="#666666"
     borderopacity="1.0"
     inkscape:pageopacity="0.0"
     inkscape:pageshadow="2"
     inkscape:zoom="1.979899"
     inkscape:cx="367.85714"
     inkscape:cy="536.08573"
     inkscape:document-units="px"
     inkscape:current-layer="layer1"
     showgrid="true"
     showguides="true"
     inkscape:guide-bbox="true"
     inkscape:window-width="1280"
     inkscape:window-height="744"
     inkscape:window-x="-4"
     inkscape:window-y="-4" />
  <metadata
     id="metadata7">
    <rdf:RDF>
      <cc:Work
         rdf:about="">
        <dc:format>image/svg+xml</dc:format>
        <dc:type
           rdf:resource="http://purl.org/dc/dcmitype/StillImage" />
      </cc:Work>
    </rdf:RDF>
  </metadata>
  <g
     inkscape:label="Livello 1"
     inkscape:groupmode="layer"
     id="layer1">
    <g
       id="g5497">
      <g
         transform="matrix(1.093345,0,0,1.083133,-45.4176,-9.080228)"
         id="g6472">
        <g
           id="g6443"
           inkscape:export-filename="F:\QGIS_N_ARROWS\METEOROLOGY\sky partly_cloudy.png"
           inkscape:export-xdpi="150.42999"
           inkscape:export-ydpi="150.42999">
          <path
             inkscape:export-ydpi="150.42999"
             inkscape:export-xdpi="150.42999"
             inkscape:export-filename="F:\QGIS_N_ARROWS\METEOROLOGY\sky_clear.png"
             transform="matrix(2.409709,0,0,2.313901,-592.0828,-546.6202)"
             d="M 401.78572 447.54074 A 29.821428 29.821428 0 1 1  342.14287,447.54074 A 29.821428 29.821428 0 1 1  401.78572 447.54074 z"
             sodipodi:ry="29.821428"
             sodipodi:rx="29.821428"
             sodipodi:cy="447.54074"
             sodipodi:cx="371.96429"
             id="path3762"
             style="fill:none;fill-opacity:1;stroke:black;stroke-width:3.29999995;stroke-linecap:square;stroke-linejoin:miter;stroke-miterlimit:4;stroke-dasharray:none;stroke-opacity:1"
             sodipodi:type="arc" />
          <path
             sodipodi:nodetypes="ccsc"
             id="path6441"
             d="M 303.72176,427.48214 L 303.72176,546.17076 C 300.35676,567.4787 363.03225,555.58214 370.28747,487.93426 C 375.51755,439.16857 305.97798,406.34747 303.72176,427.48214 z "
             style="fill:black;fill-opacity:1;fill-rule:evenodd;stroke:black;stroke-width:7.18216276px;stroke-linecap:butt;stroke-linejoin:miter;stroke-opacity:1" />
        </g>
        <path
           style="fill:none;fill-rule:evenodd;stroke:black;stroke-width:1px;stroke-linecap:butt;stroke-linejoin:miter;stroke-opacity:1"
           d="M 300,555.36713 L 301.02546,483.6463"
           id="path6449" />
        <path
           style="fill:black;fill-opacity:1;fill-rule:evenodd;stroke:black;stroke-width:1.02594161px;stroke-linecap:butt;stroke-linejoin:miter;stroke-opacity:1"
           d="M 301.48639,556.84921 L 302.02265,488.23737 L 235.40003,486.68973 C 229.31451,532.87508 262.35288,547.33353 301.48639,556.84921 z "
           id="path6451"
           sodipodi:nodetypes="cccc" />
        <path
           style="fill:black;fill-opacity:1;fill-rule:evenodd;stroke:black;stroke-width:1.02594161px;stroke-linecap:butt;stroke-linejoin:miter;stroke-opacity:1"
           d="M 233.11576,486.98499 L 301.7276,487.52125 L 303.27524,420.89863 C 257.08989,414.81311 242.63144,447.85148 233.11576,486.98499 z "
           id="path6470"
           sodipodi:nodetypes="cccc" />
      </g>
      <path
         transform="matrix(1.578651,0,0,1.506188,-504.1835,-225.0682)"
         d="M 553.05851 496.02066 A 52.275394 52.275394 0 1 1  448.50772,496.02066 A 52.275394 52.275394 0 1 1  553.05851 496.02066 z"
         sodipodi:ry="52.275394"
         sodipodi:rx="52.275394"
         sodipodi:cy="496.02066"
         sodipodi:cx="500.78311"
         id="path7369"
         style="fill:none;fill-opacity:1;stroke:black;stroke-width:3;stroke-linecap:square;stroke-linejoin:miter;stroke-miterlimit:4;stroke-dasharray:none;stroke-opacity:1"
         sodipodi:type="arc" />
    </g>
  </g>
</svg>
